X:1
T:Title
%%score { 1 | ( 2 3 ) }
L:1/8
Q:1/4=100
M:6/8
K:C
V:1 treble nm="Grand Piano"
V:2 bass 
V:3 bass 
V:1
 [EG]2 [EG] [EG]2 [EG] | [EG]3 .[Ec]3 | [CE]2 [CE] [EG]FE | D6 | [EG]2 [EG] [EG]2 [EG] | %5
 [Ge]3 .[Ec]3 | d2 d GA[DFB] | [CEc]6 |] %8
V:2
 [C,C]2 [C,C] [C,C]2 [C,C] | [C,C]3 .[C,G,]3 | [C,G,]2 [C,G,] z D[E,G,C] | [G,B,]6 | %4
 [C,G,]2 [C,G,] [C,C]2 [C,C] | [C,C]3 .[C,G,]3 | [F,A,F]2 [F,A,F] [G,F]-[G,CF]G, | C,6 |] %8
V:3
 x6 | x6 | z3 .[C,G,]3 | x6 | x6 | x6 | z3 .B,3 | x6 |] %8

